!!!COM: Music21
!!!OTL: slide_Clog--The
!!!OMV: slide_Clog--The
**kern
*clefG2
*k[f#]
*G:
*M12/8
=1
8aL
8b
8aJ
4a
8g
4f#
8g
4a
8b
=
8ccL
8b
8ccJ
4ee
8dd
4.b
4b
8a
=
8aL
8b
8aJ
4a
8g
4f#
8g
4a
8b
=
8ccL
8b
8ccJ
4dd
8b
4.g
4.g
!!linebreak:original
=||
*M12/8
8aL
8b
8aJ
4a
8g
4f#
8g
4a
8b
=
8ccL
8b
8ccJ
4ee
8dd
4.b
4b
8a
=
8aL
8b
8aJ
4a
8g
4f#
8g
4a
8b
=
8ccL
8b
8ccJ
4dd
8b
4.g
4.g
!!linebreak:original
=||
4dd
8gg
8ggL
8ff#
8ggJ
4ff#
8a
4a
8b
=
8ccL
8b
8ccJ
4ee
8dd
4.b
4b
8cc
=
4dd
8gg
8ggL
8ff#
8ggJ
4dd
8a
4a
8b
=
8ccL
8b
8ccJ
4dd
8b
4.g
4.g
=
4dd
8gg
8ggL
8ff#
8ggJ
4dd
8a
4a
8b
!!linebreak:original
=
8ccL
8b
8ccJ
4ee
8dd
4.b
4b
8g
=
8aL
8b
8aJ
4a
8g
4f#
8g
4a
8b
=
8ccL
8b
8ccJ
4dd
8b
4.g
4.g
=
*-
